src/assets/Hero/mappin.svg

<svg width="24" height="24" viewBox="0 0 24 24" fill="none" xmlns="http://www.w3.org/2000/svg">
<path d="M12 1C14.3869 1 16.6761 1.99337 18.364 3.76159C20.0518 5.5298 21 7.92801 21 10.4286C21 14.934 18.0975 19.081 12.402 22.8776C12.2818 22.9575 12.1424 23 12 23C11.8576 23 11.7182 22.9575 11.598 22.8776C5.9025 19.081 3 14.934 3 10.4286C3 7.92801 3.94821 5.5298 5.63604 3.76159C7.32387 1.99337 9.61305 1 12 1ZM12 7.28576C11.2044 7.28576 10.4413 7.61689 9.87868 8.20629C9.31607 8.7957 9 9.5951 9 10.4286C9 11.2622 9.31607 12.0616 9.87868 12.651C10.4413 13.2404 11.2044 13.5715 12 13.5715C12.7956 13.5715 13.5587 13.2404 14.1213 12.651C14.6839 12.0616 15 11.2622 15 10.4286C15 9.5951 14.6839 8.7957 14.1213 8.20629C13.5587 7.61689 12.7956 7.28576 12 7.28576Z" fill="#F59E0B"/>
</svg>

<svg xmlns="http://www.w3.org/2000/svg" width="24" height="24" fill="none"><path fill="#F59E0B" d="M12 1c2.387 0 4.676.993 6.364 2.762C20.052 5.53 21 7.928 21 10.429c0 4.505-2.902 8.652-8.598 12.449a.726.726 0 0 1-.804 0C5.902 19.08 3 14.934 3 10.428c0-2.5.948-4.898 2.636-6.666C7.324 1.993 9.613 1 12 1Zm0 6.286c-.796 0-1.559.33-2.121.92A3.22 3.22 0 0 0 9 10.43c0 .833.316 1.633.879 2.222.562.59 1.325.92 2.121.92s1.559-.33 2.121-.92A3.22 3.22 0 0 0 15 10.429a3.22 3.22 0 0 0-.879-2.223A2.933 2.933 0 0 0 12 7.286Z"/></svg>
